!!!COM: Bach, Johann Sebastian
!!!CDT: 1685/3//-1750/7/28/
!!!OTL@@DE: Vater unser im Himmelreich
!!!OTL@EN: Our Father in Heaven
!!!AGN: 4-Part Chorale
!!!SCT: BH 110
!!!SCT: BWV 102
**harm	**root	**kern	**kern	**kern	**kern
!	!	!bass	!tenor	!alto	!soprno
*	*Iorgan	*Iorgan	*Iorgan	*Iorgan	*Iorgan
*M4/4	*M4/4	*M4/4	*M4/4	*M4/4	*M4/4
*met(c)	*met(c)	*met(c)	*met(c)	*met(c)	*met(c)
*MM60	*MM60	*MM60	*MM60	*MM60	*MM60
*k[b-e-a-]	*k[b-e-a-]	*k[b-e-a-]	*k[b-e-a-]	*k[b-e-a-]	*k[b-e-a-]
*c:	*c:	*c:	*c:	*c:	*c:
i	4CC	4C	4c	4e-	4g
=1	=1	=1	=1	=1	=1
Vb	4GG	4BBn	4G	4d	4g
i	4CC	4C	4G	4c	4e-
ivb	4FF	4A-	4c	8c	4f
.	.	.	.	8d	.
ib	8CC	8E-	8c	8e-	8g
iiob	8DD	8F	8A-	8d	8f
=2	=2	=2	=2	=2	=2
ic	4CC	4G	4G	4c	4e-
V	4GG	4GG	8G	4Bn	4d
.	.	.	8F	.	.
i;	4CC;	4C;	4E-;	4G;	4c;
i	4CC	4c	4c	4e-	4g
=3	=3	=3	=3	=3	=3
iiib	4EE-	8G	4B-	4e-	4g
.	.	8A-	.	.	.
-VII	4BB-	4B-	4B-	8d	4f
.	.	.	.	8e-	.
-VIIb	4BB-	4D	4B-	4f	4b-
III	4EE-	4E-	4B-	8e-	8g
.	.	.	.	8d	8f
=4	=4	=4	=4	=4	=4
VI	4AA-	4A-	4c	8c	4e-
.	.	.	.	8Bn	.
ivb	4FF	4AA-	4A-	8c	4f
.	.	.	.	8d	.
V;	4GG;	4GG;	4D;	4B;	4g;
i	4CC	4C	4c	4e-	8g
.	.	.	.	.	8an
=5	=5	=5	=5	=5	=5
v	4GG	4G	4B-y	4d	4b-
iv7	4FF	4F	4A-	8e-	8cc
.	.	.	.	8f	8dd
ib	4CC	4E-	4G	4g	4ee-
ii	8DD	8F	8An	4f	4dd
V7	8GG	8G	8Bn	.	.
=6	=6	=6	=6	=6	=6
VI	4AA-	4A-y	4c	8e-	4cc
.	.	.	.	8f	.
V	4GG	4G	4d	4g	4bn
i;	4CC;	4C;	4e-;	4g;	4cc;
IV	4FF	4F	4An	4f	4cc
!!linebreak: 2
=7	=7	=7	=7	=7	=7
-VII	4BB-	4B-	4B-	4f	4dd
viib/V	4FF#	4A	4c	4f#	4cc
V	4GG	4G	4d	4g	4b-
#viD7	8AA	8C	8e-	8g	4a
V/V	8DD	8D	8d	8f#	.
=8	=8	=8	=8	=8	=8
ib	4CC	4E-	8d	4g	4g
.	.	.	8c	.	.
V7/V	4DD	4D	8c	4f#	4a
.	.	.	8Bn	.	.
V;	4GG;	4GG;	4B;	4d;	4g;
IV	4FF	8F	4A	4fn	4cc
.	.	8E-	.	.	.
=9	=9	=9	=9	=9	=9
-VIIb	4BB-	4D	4B-	4f	4b-
#viob	4AA	4C	4c	4e-	4a
-VII	4BB-	4BB-	4F	4d	8b-
.	.	.	.	.	8a-
i	4CC	8C	4E-	8e-	4g
.	.	8BB-	.	8d	.
=10	=10	=10	=10	=10	=10
VI7	4AA-	4AA-	4E-	4c	4g
-VII	4BB-	4BB-	8B-	4d	4f
.	.	.	8A-	.	.
III;	4EE-;	4E-;	4G;	4B-;	4e-;
Ib	4CC	4En	4c	4c	4g
=11	=11	=11	=11	=11	=11
iv	4FF	4F	4c	4f	4a-
V7	4GG	4G	4Bn	8e-	8g
.	.	.	.	8d	8f
VI	4AA-	8A-	8c	4c	4e-
.	.	8G	8B-	.	.
iv	4FF	4F	4A-	8d	4f
.	.	.	.	8c	.
=12	=12	=12	=12	=12	=12
ic	4CC	4G	4G	8Bn	4e-
.	.	.	.	8c	.
V	4GG	4GG	8G	8c	4d
.	.	.	8F	8B	.
I;	4CC;	4C;	4En;	4G;	4c;
==	==	==	==	==	==
*-	*-	*-	*-	*-	*-
!!chor2scor: -l 2 -s 0.6 -o %b.pmx
!!!YEC: Copyright 1994, David Huron
!!!YEC: Changes/Additions 2001 by Craig Stuart Sapp
!!!YEN: United States of America
!!!SMA: 371 Bach Chorales, edited by Ludwig Erk, C.F. Peters
!!!PDT: 1850, 1865
!!!ONB: Harmony and Root analysis done manually
